X: 34805
T: Road To Taynuilt, The
R: reel
M: 4/4
K: Gmajor
c|:GEDE C3A|GCAc GCEG|AFFE F2FE|DEFG AGcA|
GEDE C3A|GCAc GCEG|AGGE GcGE|1 D2 CD EC C2:|2 D2 CD EGAG||
|:c3G AcGE|CEGc AGEG|AFFE F2FE|DEFG AGEG|
c3G AcGE|CEGc AGEG|A2 GE (3GAc GE|1 D2 CD EGAG:|2 D2 CD ECCc||

